X: 48
T: No_144_Dream_Song.krn
%%abc-version 2.0
%%abcx-abcm2ps-target-version 5.9.1 (29 Sep 2008)
%%abc-creator hum2abc beta
%%abcx-conversion-date 2020/08/10 18:54:56
%%gracespace 0 6 6
%%humdrum-veritas 67393291
%%humdrum-veritas-data 2596641508
%%linebreak <none>
%%barnumbers 0
L: 1/8
M: 3/4
%%staves {1 2}
V: 1 clef=bass
V: 2 clef=bass
K: B
[V:1] [K:clef=bass][M:3/4]F2F3D | 
[V:2] [K:clef=bass][M:3/4](3!accent!G,, z G,, (3!accent!G,, z G,, (3!accent!G,, z G,, | 
[V:1] B,<B,B,4 | 
[V:2] z6 | 
[V:1] F2D3F/D/ | 
[V:2] z6 | 
[V:1] F/B,/B,B,4 | 
[V:2] z6 | 
[V:1] F/D/F/B,< B,B,/ B,F, ||  
[V:2] z6 ||  
[V:1] [M:2/4]{/F,}F,4 ||  
[V:2] [M:2/4]z4 ||  
[V:1] [M:3/4]B,B,/F,/F,3F,/D,/ | 
[V:2] [M:3/4]z6 | 
[V:1] B,,>B,,B,,4 |]  
[V:2] z6 |]  


